.local/share/icons/Gruvbox-Plus-Dark/mimetypes/scalable/application-mspowerpoint.svg

<svg width="256" height="256" viewBox="0 0 256 256" fill="none" xmlns="http://www.w3.org/2000/svg">
<g clip-path="url(#clip0)">
<g opacity="0.4" filter="url(#filter0_f)">
<path d="M55.0839 15.5636H155.608L216.009 75.7129L216.011 224.609C216.011 233.52 208.749 240.737 199.838 240.737H55.0838C46.1734 240.737 39 233.564 39 224.654V31.6474C39 22.737 46.1734 15.5636 55.0838 15.5636H55.0839Z" fill="#282828"/>
</g>
<path d="M55.0839 15H155.608L216.009 75.1493L216.011 224.045C216.011 232.956 208.749 240.174 199.838 240.174H55.0838C46.1734 240.174 39 233 39 224.09V31.0838C39 22.1734 46.1734 15 55.0838 15H55.0839Z" fill="#ebdbb2"/>
<path fill-rule="evenodd" clip-rule="evenodd" d="M155.609 22.9787H55.0839C50.58 22.9787 46.9787 26.5799 46.9787 31.0838V224.09C46.9787 228.594 50.5799 232.195 55.0838 232.195H199.838C204.371 232.195 208.032 228.521 208.032 224.046V75.1493L155.609 22.9787ZM155.608 15H55.0839C46.1735 15 39 22.1734 39 31.0838V224.09C39 233 46.1734 240.174 55.0838 240.174H199.838C208.749 240.174 216.011 232.956 216.011 224.045L216.009 75.1493L155.608 15Z" fill="url(#paint0_linear)"/>
<path d="M133.033 68C111.365 71.7255 89.6798 76.6617 68.0075 80.3102C68.0075 112.106 67.9907 143.91 68.0075 175.714C89.5664 179.35 111.134 184.21 132.651 188H139.109V68H133.033ZM100.426 105.785C104.7 105.7 108.803 106.291 112.137 109.199C118.52 116.67 116.832 130.413 107.367 134.884C104.003 136.544 100.153 136.313 96.491 136.2C96.4784 141.788 96.4616 147.368 96.4784 152.956C93.5431 152.714 90.5994 152.471 87.6641 152.244C87.5298 136.986 87.4962 122.42 87.6767 107.162C91.8508 106.664 96.1466 105.874 100.426 105.785V105.785ZM99.9301 114.066C98.7627 114.038 97.5702 114.139 96.4784 114.187C96.4364 118.986 96.4028 123.772 96.7135 128.555C99.6656 128.215 103.487 128.502 105.175 125.558C106.582 122.671 106.67 118.986 104.982 116.184C103.751 114.532 101.874 114.119 99.9301 114.066V114.066ZM143.556 85.1452V99.3869C145.639 98.9577 147.902 98.1438 150.22 98.0101V117.285H170.087C169.381 123.133 166.677 129.142 161.332 132.199C156.082 135.601 149.422 135.641 143.556 133.888C143.569 136.686 143.539 142.343 143.556 145.145H179.107V149.429H143.556V157.998H179.107V162.286H143.556V175.143H187.997V85.1452H143.556ZM154.663 95.4145C164.111 96.358 171.922 103.91 172.955 113.001H154.663V95.4145Z" fill="url(#paint1_linear)"/>
<path opacity="0.25" d="M155.608 17V61.2306C155.608 70.141 162.867 77.1605 171.777 77.1605L216.009 77.1493V75.1493L155.608 17Z" fill="#282828"/>
<path d="M155.608 15V59.2306C155.608 68.141 162.867 75.1605 171.777 75.1605L216.009 75.1493L155.608 15Z" fill="url(#paint2_linear)"/>
</g>
<defs>
<filter id="filter0_f" x="23.8778" y="0.441412" width="207.255" height="255.418" filterUnits="userSpaceOnUse" color-interpolation-filters="sRGB">
<feFlood flood-opacity="0" result="BackgroundImageFix"/>
<feBlend mode="normal" in="SourceGraphic" in2="BackgroundImageFix" result="shape"/>
<feGaussianBlur stdDeviation="7.5611" result="effect1_foregroundBlur"/>
</filter>
<linearGradient id="paint0_linear" x1="39" y1="15" x2="39" y2="240.174" gradientUnits="userSpaceOnUse">
<stop offset="1e-07" stop-color="#fe8019"/>
<stop offset="1" stop-color="#d65d0e"/>
</linearGradient>
<linearGradient id="paint1_linear" x1="68" y1="68" x2="68" y2="188" gradientUnits="userSpaceOnUse">
<stop offset="1e-07" stop-color="#fe8019"/>
<stop offset="1" stop-color="#d65d0e"/>
</linearGradient>
<linearGradient id="paint2_linear" x1="155.608" y1="15" x2="155.608" y2="75.1605" gradientUnits="userSpaceOnUse">
<stop offset="1e-07" stop-color="#fe8019"/>
<stop offset="1" stop-color="#d65d0e"/>
</linearGradient>
<clipPath id="clip0">
<rect width="256" height="256" fill="#ebdbb2"/>
</clipPath>
</defs>
</svg>

<svg width="256" height="256" fill="none" version="1.1" viewBox="0 0 256 256" xmlns="http://www.w3.org/2000/svg">
  <path d="m55.08 15h100.5l60.4 60.15 2e-3 148.9c0 8.911-7.262 16.13-16.17 16.13h-144.8c-8.91 0-16.08-7.174-16.08-16.08v-193c0-8.91 7.173-16.08 16.08-16.08h1e-4z" fill="#ebdbb2"/>
  <path d="m155.6 22.98h-100.5c-4.504 0-8.105 3.601-8.105 8.105v193c0 4.504 3.601 8.105 8.105 8.105h144.8c4.533 0 8.194-3.674 8.194-8.149v-148.9l-52.42-52.17zm-1e-3 -7.979h-100.5c-8.91 0-16.08 7.173-16.08 16.08v193c0 8.91 7.173 16.08 16.08 16.08h144.8c8.911 0 16.17-7.218 16.17-16.13l-2e-3 -148.9-60.4-60.15z" clip-rule="evenodd" fill="url(#paint0_linear)" fill-rule="evenodd"/>
  <path d="m133 68c-21.67 3.726-43.35 8.662-65.03 12.31 0 31.8-0.0168 63.6 0 95.4 21.56 3.636 43.13 8.496 64.64 12.29h6.458v-120h-6.076zm-32.61 37.78c4.274-0.085 8.377 0.506 11.71 3.414 6.383 7.471 4.695 21.21-4.77 25.68-3.364 1.66-7.214 1.429-10.88 1.316-0.0126 5.588-0.0294 11.17-0.0126 16.76-2.935-0.242-5.879-0.485-8.814-0.712-0.1343-15.26-0.1679-29.82 0.0126-45.08 4.174-0.498 8.47-1.288 12.75-1.377zm-0.4959 8.281c-1.167-0.028-2.36 0.073-3.452 0.121-0.042 4.799-0.0756 9.585 0.2351 14.37 2.952-0.34 6.774-0.053 8.462-2.997 1.407-2.887 1.495-6.572-0.193-9.374-1.231-1.652-3.108-2.065-5.052-2.118zm43.63-28.92v14.24c2.083-0.4292 4.346-1.243 6.664-1.377v19.27h19.87c-0.706 5.848-3.41 11.86-8.755 14.91-5.25 3.402-11.91 3.442-17.78 1.689 0.013 2.798-0.017 8.455 0 11.26h35.55v4.284h-35.55v8.569h35.55v4.288h-35.55v12.86h44.44v-90h-44.44zm11.11 10.27c9.448 0.9435 17.26 8.496 18.29 17.59h-18.29v-17.59z" fill="url(#paint1_linear)"/>
  <path d="m155.6 17v44.23c0 8.91 7.259 15.93 16.17 15.93l44.23-0.0112v-2l-60.4-58.15z" fill="#282828" opacity=".25"/>
  <path d="m155.6 15v44.23c0 8.91 7.259 15.93 16.17 15.93l44.23-0.0112-60.4-60.15z" fill="url(#paint2_linear)"/>
  <defs>
    <linearGradient id="paint0_linear" x1="39" x2="39" y1="15" y2="240.2" gradientUnits="userSpaceOnUse">
      <stop stop-color="#fe8019" offset="1e-7"/>
      <stop stop-color="#d65d0e" offset="1"/>
    </linearGradient>
    <linearGradient id="paint1_linear" x1="68" x2="68" y1="68" y2="188" gradientUnits="userSpaceOnUse">
      <stop stop-color="#fe8019" offset="1e-7"/>
      <stop stop-color="#d65d0e" offset="1"/>
    </linearGradient>
    <linearGradient id="paint2_linear" x1="155.6" x2="155.6" y1="15" y2="75.16" gradientUnits="userSpaceOnUse">
      <stop stop-color="#fe8019" offset="1e-7"/>
      <stop stop-color="#d65d0e" offset="1"/>
    </linearGradient>
  </defs>
</svg>
